X:159
T: Die Mordeltern
N: Q0085A
O: Mitteleuropa, Deutschland (BRD) , Nordbayern, Franken, Eibelstadt
N: Zweistimmig notiert, Oberstimme kodiert.
R: Ballade, Habgier, Mord, Reue, Selbstmord
M: 3/4
L: 1/16
K: F
C2 | C2F2F4F4 | E2F2G4z2
CC | C2G2G4G4 | F2G2A4z2
Ac | c2A2A2GAB2G2 | G4A4z2
Ac | c2A2A2GAB2G2 | G4F4z2

@@@ Tune index: 1214
